X:30
T: I'm O'er Young to Marry yet 
N: HA030
O: Europa, Mitteleuropa, Deutschland
M: 2/2
L: 1/16
K: Bb
B2 | d2f2f2g2b3cd2
c2 | b2g2f2g2c3dc2
c2 | d2f2f2g2b3cd2
b2 | d2f2c3db2B2B2
f2 | d2B2f2B2d3ef2
g2 | d2B2f2b2d2c2c2
f2 | d2B2f2B2d3ef2
g2 | d2b2c2a2b2B2B2

